X: 50
T: No_3_Song_of_the_Married_Man_Who_Became_a_Whaler.krn
N: Derived from No_3_Song_of_the_Married_Man_Who_Became_a_Whaler.krn
%%abc-version 2.0
%%abcx-abcm2ps-target-version 5.9.1 (29 Sep 2008)
%%abc-creator hum2abc beta
%%abcx-conversion-date 2019/03/15 08:36:13
%%humdrum-veritas 865705893
%%humdrum-veritas-data 3351294294
%%linebreak <none>
%%barnumbers 0
L: 1/8
M: 3/4
%%staves {1 2}
V: 1 clef=bass
V: 2 clef=bass
K: G
[V:1] [K:clef=bass][M:3/4]z4F,B,/A,/ | 
[V:2] [K:clef=bass][M:3/4]z6 | 
[V:1] A,4G, z | 
[V:2] (3z G,,G,, (3z G,,G,, (3z G,,G,, | 
[V:1] A,2A,A, G,G,/ z/ ||  
[V:2] (3z G,,G,, (3z G,,G,, (3z G,,G,, ||  
[V:1] [M:2/4]G,4 ||  
[V:2] [M:2/4](3z G,,G,, (3z G,,G,, ||  
[V:1] [M:3/4]D,2D, z G,B,/G,/ | 
[V:2] [M:3/4](3z G,,G,, (3z G,,G,, (3z G,,G,, | 
[V:1] G,3z D, z | 
[V:2] (3z G,,G,, (3z G,,G,, (3z G,,G,, | 
[V:1] G,2G,G,/ z/ G,G,/ z/ ||  
[V:2] (3z G,,G,, (3z G,,G,, (3z G,,G,, ||  
[V:1] [M:2/4]G,2A,2 | 
[V:2] [M:2/4](3z G,,G,, (3z G,,G,, | 
[V:1] A, z G,B,/A,/ ||  
[V:2] (3z G,,G,, (3z G,,G,, ||  
[V:1] [M:3/4]A,3z F, z | 
[V:2] [M:3/4](3z G,,G,, (3z G,,G,, (3z G,,G,, | 
[V:1] A,2A,A,/F,/ F,F,/ z/ ||  
[V:2] (3z G,,G,, (3z G,,G,, (3z G,,G,, ||  
[V:1] [M:2/4]F,4 ||  
[V:2] [M:2/4](3z G,,G,, (3z G,,G,, ||  
[V:1] [M:3/4]D, z D, z F,A,/F,/ | 
[V:2] [M:3/4](3z G,,G,, (3z G,,G,, (3z G,,G,, | 
[V:1] F,4D, z | 
[V:2] (3z G,,G,, (3z G,,G,, (3z G,,G,, | 
[V:1] F,2F,F,/ z/ F,F,/ z/ ||  
[V:2] (3z G,,G,, (3z G,,G,, (3z G,,G,, ||  
[V:1] [M:2/4]F,2G, z | 
[V:2] [M:2/4](3z G,,G,, (3z G,,G,, | 
[V:1] G,4 | 
[V:2] (3z G,,G,, (3z G,,G,, | 
[V:1] G,4 |]  
[V:2] (3z G,,G,, (3z G,,G,, |]  



